src/assets/filled/Refresh2.svg

<?xml version="1.0" encoding="UTF-8"?>
<svg width="24" height="24" viewBox="0 0 24 24" xmlns="http://www.w3.org/2000/svg">
 <path d="m16.19 2h-8.38c-3.64 0-5.81 2.17-5.81 5.81v8.37c0 3.65 2.17 5.82 5.81 5.82h8.37c3.64 0 5.81-2.17 5.81-5.81v-8.38c0.01-3.64-2.16-5.81-5.8-5.81zm-4.19 16.25c-1.79 0-3.19-0.89-4.14-1.77v0.71c0 0.41-0.34 0.75-0.75 0.75s-0.75-0.34-0.75-0.75v-2.75c0-0.41 0.34-0.75 0.75-0.75h2.48c0.41 0 0.75 0.34 0.75 0.75s-0.34 0.75-0.75 0.75h-0.9c0.74 0.74 1.89 1.56 3.31 1.56 2.62 0 4.75-2.13 4.75-4.75 0-0.41 0.34-0.75 0.75-0.75s0.75 0.34 0.75 0.75c0 3.45-2.8 6.25-6.25 6.25zm6.25-8.71v0.08c-0.01 0.11-0.04 0.21-0.09 0.3s-0.12 0.17-0.21 0.24c-0.07 0.05-0.15 0.09-0.24 0.12-0.07 0.02-0.14 0.03-0.21 0.03h-2.43c-0.41 0-0.75-0.34-0.75-0.75s0.34-0.75 0.75-0.75h0.83c-0.8-0.74-2.09-1.56-3.88-1.56-2.62 0-4.75 2.13-4.75 4.75 0 0.41-0.34 0.75-0.75 0.75s-0.77-0.34-0.77-0.75c0-3.45 2.8-6.25 6.25-6.25 2.15 0 3.73 0.93 4.75 1.82v-0.76c0-0.41 0.34-0.75 0.75-0.75s0.75 0.34 0.75 0.75v2.73z"/>
</svg>

<svg width="24" height="24" viewBox="0 0 24 24"  xmlns="http://www.w3.org/2000/svg">
<path d="M16.19 2H7.81C4.17 2 2 4.17 2 7.81V16.18C2 19.83 4.17 22 7.81 22H16.18C19.82 22 21.99 19.83 21.99 16.19V7.81C22 4.17 19.83 2 16.19 2ZM12 18.25C10.21 18.25 8.81 17.36 7.86 16.48V17.19C7.86 17.6 7.52 17.94 7.11 17.94C6.7 17.94 6.36 17.6 6.36 17.19V14.44C6.36 14.03 6.7 13.69 7.11 13.69H9.59C10 13.69 10.34 14.03 10.34 14.44C10.34 14.85 10 15.19 9.59 15.19H8.69C9.43 15.93 10.58 16.75 12 16.75C14.62 16.75 16.75 14.62 16.75 12C16.75 11.59 17.09 11.25 17.5 11.25C17.91 11.25 18.25 11.59 18.25 12C18.25 15.45 15.45 18.25 12 18.25ZM18.25 9.54C18.25 9.57 18.25 9.6 18.25 9.62C18.24 9.73 18.21 9.83 18.16 9.92C18.11 10.01 18.04 10.09 17.95 10.16C17.88 10.21 17.8 10.25 17.71 10.28C17.64 10.3 17.57 10.31 17.5 10.31H15.07C14.66 10.31 14.32 9.97 14.32 9.56C14.32 9.15 14.66 8.81 15.07 8.81H15.9C15.1 8.07 13.81 7.25 12.02 7.25C9.4 7.25 7.27 9.38 7.27 12C7.27 12.41 6.93 12.75 6.52 12.75C6.11 12.75 5.75 12.41 5.75 12C5.75 8.55 8.55 5.75 12 5.75C14.15 5.75 15.73 6.68 16.75 7.57V6.81C16.75 6.4 17.09 6.06 17.5 6.06C17.91 6.06 18.25 6.4 18.25 6.81V9.54Z" />
</svg>
